icons/svg/border-all.svg

﻿<?xml version="1.0" encoding="utf-8"?>
<!DOCTYPE svg PUBLIC "-//W3C//DTD SVG 1.1//EN" "http://www.w3.org/Graphics/SVG/1.1/DTD/svg11.dtd">
<svg xmlns="http://www.w3.org/2000/svg" xmlns:xlink="http://www.w3.org/1999/xlink" version="1.1" baseProfile="full" width="24" height="24" viewBox="0 0 24.00 24.00" enable-background="new 0 0 24.00 24.00" xml:space="preserve">
	<path fill="#000000" fill-opacity="1" stroke-width="0.2" stroke-linejoin="round" d="M 18.9994,10.9981L 12.9994,10.9981L 12.9994,4.99813L 18.9994,4.99813M 18.9994,18.9981L 12.9994,18.9981L 12.9994,12.9981L 18.9994,12.9981M 10.9994,10.9981L 4.99938,10.9981L 4.99938,4.99813L 10.9994,4.99813M 10.9994,18.9981L 4.99938,18.9981L 4.99938,12.9981L 10.9994,12.9981M 2.99938,20.9981L 20.9994,20.9981L 20.9994,2.99813L 2.99938,2.99813L 2.99938,20.9981 Z "/>
</svg>

<svg xmlns="http://www.w3.org/2000/svg" version="1.1" baseProfile="full" width="24" height="24" viewBox="0 0 24.00 24.00" xml:space="preserve"><path fill="#000" fill-opacity="1" stroke-width=".2" stroke-linejoin="round" d="M19 10.998h-6v-6h6m0 14h-6v-6h6m-8-2H5v-6h6m0 14H5v-6h6m-8 8h18v-18H3v18z"/></svg>
